Adwaita++-Light/panel/16/indicator-sensors-fan.svg

<svg height="16" width="16" xmlns="http://www.w3.org/2000/svg">
  <g fill="#444">
    <path d="m1 0c-.554 0-1 .446-1 1v14c0 .554.446 1 1 1h14c.554 0 1-.446 1-1v-14c0-.554-.446-1-1-1zm.5 1a.5.5 0 0 1 .5.5.5.5 0 0 1 -.5.5.5.5 0 0 1 -.5-.5.5.5 0 0 1 .5-.5zm6.5 0a7 7 0 0 1 7 7 7 7 0 0 1 -7 7 7 7 0 0 1 -7-7 7 7 0 0 1 7-7zm6.5 0a.5.5 0 0 1 .5.5.5.5 0 0 1 -.5.5.5.5 0 0 1 -.5-.5.5.5 0 0 1 .5-.5zm-13 13a.5.5 0 0 1 .5.5.5.5 0 0 1 -.5.5.5.5 0 0 1 -.5-.5.5.5 0 0 1 .5-.5zm13 0a.5.5 0 0 1 .5.5.5.5 0 0 1 -.5.5.5.5 0 0 1 -.5-.5.5.5 0 0 1 .5-.5z"/>
    <circle cx="8" cy="8" r="2"/>
    <path d="m9.002 2.1016c-.553-.0011-1.002.4469-1.002 1v1.8984a3 3 0 0 1 2.344 1.1289c.789-.1705 1.455-.3276 2.129-.4863.894-.2108.533-.9895.175-1.4297-.873-1.0736-2.091-1.8135-3.447-2.0918-.066-.0132-.132-.0197-.199-.0196z"/>
    <path d="m13.897 9c.001-.6-.447-1-1-1h-1.898a3 3 0 0 1 -1.129 2.3c.17.8.327 1.5.486 2.2.211.9.989.5 1.43.1 1.073-.8 1.813-2 2.092-3.4.013-.1.019-.1.019-.2z"/>
    <path d="m6.9969 13.9c.5531 0 1.0021-.4 1.0021-1v-1.9a3 3 0 0 1 -2.3439-1.1c-.7895.1-1.4554.3-2.1289.5-.8942.2-.533.9-.1758 1.4.8736 1.1 2.0915 1.8 3.4473 2.1z"/>
    <path d="m2.1018 7c-.001.6.447 1 1 1h1.8985a3 3 0 0 1 1.1289-2.3c-.1705-.8-.3276-1.5-.4863-2.2-.2109-.9-.9895-.5-1.4297-.1-1.0736.8-1.8135 2-2.0918 3.4-.013.1-.02.1-.02.2z"/>
  </g>
</svg>

<svg xmlns="http://www.w3.org/2000/svg" width="16" height="16" version="1.1">
 <defs>
  <style id="current-color-scheme" type="text/css">
   .ColorScheme-Text { color:#444444; } .ColorScheme-Highlight { color:#4285f4; }
  </style>
 </defs>
 <path style="fill:currentColor" class="ColorScheme-Text" d="M 1,0 C 0.446,0 0,0.446 0,1 V 15 C 0,15.554 0.446,16 1,16 H 15 C 15.554,16 16,15.554 16,15 V 1 C 16,0.446 15.554,0 15,0 Z M 1.5,1 A 0.5,0.5 0 0 1 2,1.5 0.5,0.5 0 0 1 1.5,2 0.5,0.5 0 0 1 1,1.5 0.5,0.5 0 0 1 1.5,1 Z M 8,1 A 7,7 0 0 1 15,8 7,7 0 0 1 8,15 7,7 0 0 1 1,8 7,7 0 0 1 8,1 Z M 14.5,1 A 0.5,0.5 0 0 1 15,1.5 0.5,0.5 0 0 1 14.5,2 0.5,0.5 0 0 1 14,1.5 0.5,0.5 0 0 1 14.5,1 Z M 1.5,14 A 0.5,0.5 0 0 1 2,14.5 0.5,0.5 0 0 1 1.5,15 0.5,0.5 0 0 1 1,14.5 0.5,0.5 0 0 1 1.5,14 Z M 14.5,14 A 0.5,0.5 0 0 1 15,14.5 0.5,0.5 0 0 1 14.5,15 0.5,0.5 0 0 1 14,14.5 0.5,0.5 0 0 1 14.5,14 Z"/>
 <circle style="fill:currentColor" class="ColorScheme-Text" cx="8" cy="8" r="2"/>
 <path style="fill:currentColor" class="ColorScheme-Text" d="M 9.002,2.1016 C 8.449,2.1005 8,2.5485 8,3.1016 V 5 A 3,3 0 0 1 10.344,6.1289 C 11.133,5.9584 11.799,5.8013 12.473,5.6426 13.367,5.4318 13.006,4.6531 12.648,4.2129 11.775,3.1393 10.557,2.3994 9.201,2.1211 9.135,2.1079 9.069,2.1014 9.002,2.1015 Z"/>
 <path style="fill:currentColor" class="ColorScheme-Text" d="M 13.897,9 C 13.898,8.4 13.45,8 12.897,8 H 10.999 A 3,3 0 0 1 9.87,10.3 C 10.04,11.1 10.197,11.8 10.356,12.5 10.567,13.4 11.345,13 11.786,12.6 12.859,11.8 13.599,10.6 13.878,9.2 13.891,9.1 13.897,9.1 13.897,9 Z"/>
 <path style="fill:currentColor" class="ColorScheme-Text" d="M 6.9969,13.9 C 7.55,13.9 7.999,13.5 7.999,12.9 V 11 A 3,3 0 0 1 5.6551,9.9 C 4.8656,10 4.1997,10.2 3.5262,10.4 2.632,10.6 2.9932,11.3 3.3504,11.8 4.224,12.9 5.4419,13.6 6.7977,13.9 6.8637,13.9 6.93,13.9 6.9969,13.9 Z"/>
 <path style="fill:currentColor" class="ColorScheme-Text" d="M 2.1018,7 C 2.1008,7.6 2.5488,8 3.1018,8 H 5.0003 A 3,3 0 0 1 6.1292,5.7 C 5.9587,4.9 5.8016,4.2 5.6429,3.5 5.432,2.6 4.6534,3 4.2132,3.4 3.1396,4.2 2.3997,5.4 2.1214,6.8 2.1084,6.9 2.1014,6.9 2.1014,7 Z"/>
</svg>
